svgs/sharp-regular/up-right-from-square.svg

<svg xmlns="http://www.w3.org/2000/svg" viewBox="0 0 512 512"><!--! Font Awesome Pro 6.6.0 by @fontawesome - https://fontawesome.com License - https://fontawesome.com/license (Commercial License) Copyright 2024 Fonticons, Inc. --><path d="M321.9 81.9L288 48l33.9-33.9L336 0 464 0l48 0 0 48 0 128-14.1 14.1L464 224l-33.9-33.9L393 153 241 305l-17 17L190.1 288l17-17L359 119 321.9 81.9zM464 156.1L464 48 355.9 48 464 156.1zM0 32l24 0 176 0 24 0 0 48-24 0L48 80l0 384 384 0 0-152 0-24 48 0 0 24 0 176 0 24-24 0L24 512 0 512l0-24L0 56 0 32z"/></svg>

<svg xmlns="http://www.w3.org/2000/svg" viewBox="0 0 512 512"><!--! Font Awesome Pro 6.4.0 by @fontawesome - https://fontawesome.com License - https://fontawesome.com/license (Commercial License) Copyright 2023 Fonticons, Inc. --><path d="M321.9 81.9L288 48l33.9-33.9L336 0H464h48V48 176l-14.1 14.1L464 224l-33.9-33.9L393 153 241 305l-17 17L190.1 288l17-17L359 119 321.9 81.9zM464 156.1V48H355.9L464 156.1zM0 32H24 200h24V80H200 48V464H432V312 288h48v24V488v24H456 24 0V488 56 32z"/></svg>
